remix/Design/table-line.svg

<svg viewBox="0 0 24 24" fill="currentColor" xmlns="http://www.w3.org/2000/svg"><path d="M4 8H20V5H4V8ZM14 19V10H10V19H14ZM16 19H20V10H16V19ZM8 19V10H4V19H8ZM3 3H21C21.5523 3 22 3.44772 22 4V20C22 20.5523 21.5523 21 21 21H3C2.44772 21 2 20.5523 2 20V4C2 3.44772 2.44772 3 3 3Z"/></svg>

<svg viewBox="0 0 24 24" xmlns="http://www.w3.org/2000/svg"><path fill="none" d="M0 0h24v24H0Z"/><path d="M4 8h16V5H4v3Zm10 11v-9h-4v9h4Zm2 0h4v-9h-4v9Zm-8 0v-9H4v9h4ZM3 3h18v0c.55 0 1 .44 1 1v16 0c0 .55-.45 1-1 1H3v0c-.56 0-1-.45-1-1V4v0c0-.56.44-1 1-1Z"/></svg>
